!!!SOCIAL_FUNCTION:	dream songs
!!!PDT:	1913
!!!OTL: No_139_Sitting_with_the_Turtle.krn
!!!REG: Great_Lakes
!!!LANG: Non-Tone
!!!LING_GROUP: Algonquin
**kern	**kern
*staff2	*staff1
=1-	=1-
*clefF4	*clefF4
*k[b-e-a-d-g-c-]	*k[b-e-a-d-g-c-]
*M2/4	*M2/4
8GG-/L	16e-\LL
.	16e-\
8GG-/J	16.e-\
.	32e-\JJk
8GG-/L	(16d-\LK
.	8B-\)
8GG-/J	.
.	16B-\Jk
=2	=2
8GG-/L	4B-\
8GG-/J	.
8GG-/L	8.B-\L
8GG-/J	.
.	16d-\Jk
=3||	=3||
*M3/4	*M3/4
2.r	[2d-\
.	8d-\L]
.	8d-\J
=4||	=4||
*M2/4	*M2/4
2r	8.d-\L
.	16d-\Jk
.	8d-\L
.	8B-\J
=5	=5
2r	4B-\
.	8.B-\L
.	16B-\Jk
=6||	=6||
*M3/4	*M3/4
2.r	2.B-\
=7||	=7||
*M2/4	*M2/4
2r	16d-\LL
.	16B-\
.	16.d-\
.	32d-\JJk
.	8B-\L
.	8G-\J
=8	=8
2r	16G-\LK
.	8.E-\J
.	8.E-\L
.	16E-\Jk
=9||	=9||
*M3/4	*M3/4
2.r	[2E-\
.	8E-\L]
.	8E-\J
=10||	=10||
*M2/4	*M2/4
2r	8.D-\L
.	16D-\Jk
.	16D-/LK
.	8.BB-/J
=11	=11
2r	4BB-/
.	8.BB-/L
.	16D-/Jk
=12||	=12||
*M3/4	*M3/4
2.r	[2D-\
.	8.D-\L]
.	16D-\Jk
=13||	=13||
*M2/4	*M2/4
2r	8.D-\L
.	16D-\Jk
.	16D-/LK
.	8.BB-/J
=14	=14
2r	4BB-/
.	8.BB-/L
.	16BB-/Jk
=15	=15
2r	2BB-/
==	==
*-	*-
